X:6667
T:Hag er ble-men
T:An dro
S:from record
S:Dir Hir Tan: Celtic Songs From Brittany (Ariane Segal)
O:France, Brittany
L:1/8
M:2/4
Q:1/4=180
K:D
|"D"z2 D2|: F2 A2| "G"G2 "Em"GE | "D"F2 "Em"E2 | "D"D2 D2 :|\
|:"D"A2 A2 | A2 AB|
A2 D2| "G"G2 G2| "D"A2 "G"G2| "D"F2 FE| F2 "Em"E2 |\
"D" D2 D2 :|
